icons/lines/video-slash.svg

<svg xmlns="http://www.w3.org/2000/svg" width="24" height="24" viewBox="0 0 24 24" fill="none" stroke="currentColor" stroke-width="2" stroke-linecap="round" stroke-linejoin="round" >
  <path d="M16.63 7.57999C16.63 7.57999 16.66 6.62999 16.63 6.31999C16.46 4.27999 15.13 3.57999 12.52 3.57999H6.21C3.05 3.57999 2 4.62999 2 7.78999V16.21C2 17.47 2.38 18.74 3.37 19.55L4 20"/>
  <path d="M16.7398 10.95V16.21C16.7398 19.37 15.6898 20.42 12.5298 20.42H7.25977"/>
  <path d="M22.0002 6.73999V15.81C22.0002 17.48 20.8802 18.06 19.5202 17.1L16.7402 15.15"/>
  <path d="M22.02 2.19L2.02002 22.19"/>
  </svg>

<svg xmlns="http://www.w3.org/2000/svg" width="24" height="24" viewBox="0 0 24 24" fill="none" stroke="currentColor" stroke-width="2" stroke-linecap="round" stroke-linejoin="round">
  <path d="M16.63 7.58a17 17 0 0 0 0-1.26c-.17-2.04-1.5-2.74-4.11-2.74H6.21C3.05 3.58 2 4.63 2 7.79v8.42c0 1.26.38 2.53 1.37 3.34L4 20" />
  <path d="M16.74 10.95v5.26c0 3.16-1.05 4.21-4.21 4.21H7.26" />
  <path d="M22 6.74v9.07c0 1.67-1.12 2.25-2.48 1.29l-2.78-1.95" />
  <path d="m22.02 2.19-20 20" />
</svg>
